public/images/brand/brand-dark-01.svg

<svg width="92" height="28" viewBox="0 0 92 28" fill="none" xmlns="http://www.w3.org/2000/svg">
<g clip-path="url(#clip0_512_10975)">
<path d="M0 19.5399V0.404811H3.36082V19.5399H0ZM11.9653 5.65845C11.0143 5.63703 10.0686 5.80611 9.18401 6.15574C8.29938 6.50537 7.49366 7.02849 6.81429 7.69428C6.13492 8.36007 5.59564 9.15507 5.22822 10.0325C4.86081 10.9099 4.67267 11.8519 4.67489 12.8031C4.67712 13.7543 4.86967 14.6955 5.24119 15.5712C5.61271 16.4468 6.1557 17.2393 6.83818 17.9019C7.52066 18.5645 8.32882 19.0838 9.21508 19.4293C10.1013 19.7748 11.0478 19.9395 11.9986 19.9136C12.9452 19.9279 13.8851 19.7536 14.7636 19.4008C15.642 19.048 16.4414 18.5238 17.1151 17.8587C17.7887 17.1936 18.3232 16.401 18.6872 15.5272C19.0513 14.6533 19.2376 13.7157 19.2354 12.769C19.2332 11.8224 19.0425 10.8857 18.6743 10.0135C18.3062 9.14138 17.768 8.35129 17.0913 7.68938C16.4145 7.02746 15.6127 6.50696 14.7326 6.15827C13.8525 5.80958 12.9117 5.63967 11.9653 5.65845ZM11.9263 8.89694C12.6961 8.8879 13.4511 9.10789 14.0956 9.52896C14.74 9.95003 15.2447 10.5532 15.5456 11.2617C15.8464 11.9703 15.9298 12.7523 15.7852 13.5084C15.6406 14.2645 15.2745 14.9605 14.7334 15.5081C14.1923 16.0556 13.5006 16.4299 12.7463 16.5835C11.992 16.737 11.209 16.6628 10.4969 16.3704C9.78486 16.0779 9.1758 15.5804 8.74715 14.941C8.31849 14.3015 8.0896 13.5491 8.08954 12.7793C8.08529 12.2721 8.1813 11.7691 8.37205 11.2991C8.5628 10.8292 8.84453 10.4015 9.20106 10.0407C9.55759 9.67996 9.98189 9.3932 10.4496 9.19691C10.9173 9.00062 11.4191 8.89868 11.9263 8.89694ZM27.6784 5.65845C26.7274 5.63703 25.7818 5.80611 24.8971 6.15574C24.0125 6.50537 23.2068 7.02849 22.5274 7.69428C21.848 8.36007 21.3088 9.15507 20.9413 10.0325C20.5739 10.9099 20.3858 11.8519 20.388 12.8031C20.3902 13.7543 20.5828 14.6955 20.9543 15.5712C21.3258 16.4468 21.8688 17.2393 22.5513 17.9019C23.2338 18.5645 24.0419 19.0838 24.9282 19.4293C25.8144 19.7748 26.7609 19.9395 27.7117 19.9136C28.6614 19.9367 29.606 19.7679 30.4889 19.4172C31.3718 19.0666 32.1748 18.5413 32.8498 17.8728C33.5248 17.2044 34.0579 16.4065 34.4172 15.5271C34.7764 14.6477 34.9544 13.7048 34.9405 12.7549C35.0348 11.4444 34.645 10.1449 33.8451 9.10268L34.777 8.7835V6.05548H30.0094C29.2596 5.79564 28.4719 5.66149 27.6784 5.65845ZM27.6395 8.89694C28.4092 8.8879 29.1643 9.10789 29.8087 9.52896C30.4531 9.95003 30.9578 10.5532 31.2587 11.2617C31.5595 11.9703 31.643 12.7523 31.4983 13.5084C31.3537 14.2645 30.9876 14.9605 30.4465 15.5081C29.9054 16.0556 29.2137 16.4299 28.4594 16.5835C27.7051 16.737 26.9221 16.6628 26.2101 16.3704C25.498 16.0779 24.8889 15.5804 24.4603 14.941C24.0316 14.3015 23.8027 13.5491 23.8027 12.7793C23.7984 12.2721 23.8944 11.7691 24.0852 11.2991C24.2759 10.8292 24.5576 10.4015 24.9142 10.0407C25.2707 9.67996 25.695 9.3932 26.1627 9.19691C26.6304 9.00062 27.1322 8.89868 27.6395 8.89694ZM31.5319 20.4719C31.5319 21.5007 31.1232 22.4873 30.3957 23.2148C29.6683 23.9422 28.6816 24.3509 27.6528 24.3509C26.624 24.3509 25.6374 23.9422 24.9099 23.2148C24.1824 22.4873 23.7737 21.5007 23.7737 20.4719H20.3629C20.3469 21.4306 20.5269 22.3825 20.8919 23.2692C21.2568 24.1558 21.799 24.9587 22.4852 25.6284C23.1714 26.2981 23.9871 26.8207 24.8824 27.164C25.7777 27.5073 26.7337 27.6642 27.6917 27.625C28.6409 27.6492 29.5851 27.4815 30.4678 27.1318C31.3505 26.7821 32.1535 26.2578 32.8286 25.5902C33.5037 24.9226 34.0369 24.1255 34.3964 23.2467C34.7559 22.368 34.9341 21.4256 34.9205 20.4763L31.5319 20.4719ZM36.294 19.5366V6.05548H39.6559V19.5399L36.294 19.5366ZM42.9188 19.5366V9.07599H41.1161V6.05548H42.9188V1.91507H46.2797V6.05548H48.1313V9.07599H46.2797V19.5399L42.9188 19.5366ZM40.193 2.22424C40.193 2.66415 40.0626 3.09418 39.8182 3.45995C39.5738 3.82573 39.2264 4.11081 38.82 4.27916C38.4136 4.44751 37.9663 4.49155 37.5349 4.40573C37.1034 4.31991 36.7071 4.10807 36.396 3.79701C36.085 3.48594 35.8731 3.08962 35.7873 2.65816C35.7015 2.2267 35.7455 1.77948 35.9139 1.37306C36.0822 0.966631 36.3673 0.619253 36.7331 0.374851C37.0989 0.130449 37.5289 0 37.9688 0C38.5587 0 39.1245 0.234338 39.5416 0.651463C39.9587 1.06859 40.193 1.63433 40.193 2.22424ZM55.6882 5.64956C54.738 5.63028 53.7939 5.80524 52.9137 6.1637C52.0335 6.52216 51.2357 7.05658 50.5693 7.73421C49.903 8.41184 49.382 9.2184 49.0383 10.1045C48.6946 10.9906 48.5355 11.9375 48.5706 12.8872C48.5317 13.835 48.6923 14.7804 49.042 15.6622C49.3918 16.5439 49.9229 17.3424 50.601 18.0057C51.279 18.6691 52.0889 19.1826 52.9781 19.513C53.8673 19.8434 54.816 19.9833 55.7627 19.9236C56.9051 19.9597 58.0419 19.75 59.0962 19.3087C60.1505 18.8674 61.0977 18.2048 61.8738 17.3657L59.6273 15.1159C58.6194 16.1716 57.2604 16.8226 55.8061 16.9464C54.9626 16.9796 54.134 16.7182 53.4623 16.207C52.7906 15.6958 52.3178 14.9668 52.125 14.145H62.5989V13.2197C62.5989 9.5264 60.4614 5.65067 55.6937 5.65067L55.6882 5.64956ZM55.577 8.6089C56.4027 8.56143 57.2166 8.82232 57.8608 9.34098C58.505 9.85964 58.9336 10.5991 59.0635 11.4159H52.0238C52.189 10.6028 52.6371 9.87466 53.2884 9.36075C53.9398 8.84683 54.7522 8.58044 55.5814 8.6089H55.577ZM71.0009 19.9247C70.0504 19.9462 69.1052 19.7777 68.2207 19.429C67.3362 19.0803 66.5303 18.5586 65.8501 17.8943C65.17 17.23 64.6293 16.4366 64.2598 15.5606C63.8904 14.6845 63.6996 13.7436 63.6986 12.7928C63.6977 11.8421 63.8866 10.9008 64.2542 10.024C64.6219 9.14724 65.161 8.35273 65.8398 7.68707C66.5186 7.02141 67.3235 6.49801 68.2073 6.14755C69.0911 5.7971 70.0359 5.62666 70.9865 5.64622C72.0873 5.63785 73.176 5.87544 74.1733 6.34164C75.1705 6.80784 76.0511 7.49088 76.7506 8.34088L74.4007 10.6763C73.9808 10.1621 73.4588 9.74067 72.8677 9.4386C72.2765 9.13653 71.6291 8.96042 70.9665 8.92141C70.456 8.9087 69.9483 8.99949 69.474 9.18831C68.9996 9.37712 68.5684 9.66006 68.2063 10.02C67.8443 10.38 67.5589 10.8096 67.3673 11.2829C67.1758 11.7561 67.0821 12.2633 67.0918 12.7738C67.0794 13.2851 67.1701 13.7938 67.3583 14.2694C67.5466 14.745 67.8286 15.1779 68.1877 15.5422C68.5467 15.9065 68.9754 16.1949 69.4482 16.3901C69.921 16.5853 70.4283 16.6834 70.9398 16.6784C71.6074 16.6437 72.2604 16.4694 72.8565 16.1668C73.4526 15.8641 73.9787 15.4398 74.4007 14.9213L76.7695 17.2567C76.0681 18.1042 75.1858 18.7838 74.1874 19.2457C73.189 19.7075 72.0998 19.9399 70.9998 19.9258L71.0009 19.9247ZM77.9939 19.5499V0.355878H81.3547V7.40781C81.8603 6.82657 82.4902 6.36646 83.1976 6.06153C83.9051 5.75661 84.6721 5.61467 85.4418 5.64622C88.9616 5.64622 91.0024 8.26303 91.0024 11.6094V19.5499H87.6349V12.1221C87.6854 11.712 87.6457 11.2958 87.5186 10.9026C87.3915 10.5094 87.1801 10.1488 86.8991 9.84585C86.6181 9.54291 86.2743 9.30502 85.8917 9.1488C85.5092 8.99258 85.0972 8.9218 84.6844 8.94143C84.2356 8.90574 83.7843 8.96819 83.3621 9.12446C82.9398 9.28073 82.5566 9.52706 82.2392 9.84634C81.9217 10.1656 81.6775 10.5502 81.5236 10.9733C81.3698 11.3965 81.3098 11.8481 81.3481 12.2967V19.5555H77.9939V19.5499Z" fill="white"  />
</g>
<defs>
<clipPath id="clip0_512_10975">
<rect width="91.0013" height="27.625" fill="white"/>
</clipPath>
</defs>
</svg>

<svg xmlns="http://www.w3.org/2000/svg" width="92" height="28" fill="none"><g clip-path="url(#a)"><path fill="#fff" d="M0 19.54V.405h3.36V19.54zM11.965 5.658A7.13 7.13 0 1 0 12 19.914a7.13 7.13 0 0 0 6.675-9.9 7.13 7.13 0 0 0-6.709-4.356m-.039 3.239a3.883 3.883 0 1 1-3.836 3.882 3.85 3.85 0 0 1 3.836-3.882m15.752-3.239a7.13 7.13 0 1 0 .034 14.256 7.06 7.06 0 0 0 7.229-7.16 5.37 5.37 0 0 0-1.096-3.651l.932-.32V6.056H30.01a7.2 7.2 0 0 0-2.33-.397m-.038 3.239a3.882 3.882 0 1 1-3.837 3.882 3.85 3.85 0 0 1 3.837-3.882m3.892 11.575a3.879 3.879 0 0 1-7.758 0h-3.411a7.04 7.04 0 0 0 7.329 7.153 7.05 7.05 0 0 0 7.228-7.149zm4.762-.935V6.055h3.362V19.54zm6.625 0V9.076h-1.803v-3.02h1.803v-4.14h3.36v4.14h1.852v3.02H46.28V19.54zM40.193 2.224a2.224 2.224 0 1 1-4.448 0 2.224 2.224 0 0 1 4.448 0M55.688 5.65a6.98 6.98 0 0 0-7.117 7.237 6.774 6.774 0 0 0 7.192 7.037 7.98 7.98 0 0 0 6.11-2.558l-2.246-2.25a6 6 0 0 1-3.82 1.83 3.634 3.634 0 0 1-3.682-2.801h10.474v-.925c0-3.694-2.138-7.57-6.905-7.57zm-.111 2.959a3.336 3.336 0 0 1 3.486 2.807h-7.04a3.51 3.51 0 0 1 3.558-2.807zm15.424 11.316a7.14 7.14 0 1 1-.014-14.279 7.4 7.4 0 0 1 5.764 2.695l-2.35 2.335a4.8 4.8 0 0 0-3.434-1.755 3.78 3.78 0 0 0-3.875 3.853 3.814 3.814 0 0 0 3.848 3.904 4.78 4.78 0 0 0 3.46-1.757l2.37 2.336A7.37 7.37 0 0 1 71 19.926zm6.993-.375V.356h3.36v7.052a5.14 5.14 0 0 1 4.088-1.762c3.52 0 5.56 2.617 5.56 5.963v7.94h-3.367v-7.427a2.837 2.837 0 0 0-2.95-3.18 3.1 3.1 0 0 0-3.337 3.355v7.258h-3.354z"/></g><defs><clipPath id="a"><path fill="#fff" d="M0 0h91.001v27.625H0z"/></clipPath></defs></svg>
